!!!OTL: ICH SAH IM GARTEN HOLD UND SCHOEN
!!!ARE: Europa, Mitteleuropa, Deutschland, Westerwald
!!!SCT: B0655
!!!YEM: Copyright 1995, estate of Helmut Schaffrath.
**kern
*ICvox
*Ivox
*M6/8
*k[f#c#g#d#]
*E:
{8b
=1
4b
8ee
4g#
8b
=2
8g#
8f#
8g#
4e}
{8g#
=3
4b
8f#
8f#
8g#
8a
=4
8cc#
8b
8b
4g#}
{8e
=5
4b
8b
8b
8cc#
8dd#
=6
8ee
8dd#
8cc#
4.b
=7
8g#
8f#
8g#
4e}
{8g#
=8
4b
8f#
8f#
8a
8cc#
=9
4b
8a
4g#}
==
!!!AGN: Moral - Lied
!!!ONB: ESAC (Essen Associative Code) Database: BOEHME
!!!AMT: compound duple
!!!AIN: vox
!!!EED: Helmut Schaffrath
!!!EEV: 1.0
*-
